X:1
T:Title
%%score { ( 1 4 ) | ( 2 3 ) }
L:1/8
M:4/4
K:Db
V:1 bass nm="Grand Piano"
V:4 bass 
V:2 bass 
V:3 bass 
V:1
 z4 z2[Q:1/4=100] F,>_F, | F,2[K:treble] F>_F =F2 A,>=G, | A,2 [FA]>=G [DFA]2 .[D_GB]2 | %3
 [Dd]-[D-Gd][Dd-][B,Gd] [Fd]2 [Gc]2 |[M:3/4] [Fd]d cB AG |[M:1/4][K:bass] F,>_F, | %6
[M:4/4] z2[K:treble] F>_F =F2 A,>=G, | z2 [FA]>[_F=G] [=FA]2 [_GB]>[Gc] | [Fd]2 [Fe]2 [Fd]2 [FB]2 | %9
 [Gd]2 [Gc]2 [EGc]2 z2 | z2 [CEG]>[_C=DF] [=CEG]2 z2 | z2 [CGB]>[CG=A] [CGB]2 [CGB]>[Gd] | %12
 [Gc]2 [GB]2 [FA]2 [EG]2 | FDC[K:bass]B, A,G, F,>_F, | z2[K:treble] F>_F =F2 A,>=G, | %15
 z2 [FA]>[_F=G] [=FA]2 [_GB]>[Gc] | [Fd]2 [Fe]2 [Fd]2 [Fe]2 | [B,Gd]2 [B,Gd]2 [DGB]2 D>C | %18
 z2 d>c d2 D>C | D2 d>c d2 d>d | f2 d2 d2 [Gc]2 |[M:3/4] [Fd]6 |[M:1/4] D>D | %23
[M:4/4] D2[K:bass] B,2 G,2 A,>B, | z z/[K:treble] d/ d>d d2 D>D | D2[K:bass] B,2 G,2 A,B, | %26
 z z/[K:treble] e/ e>e e2 E>E | E2[K:bass] _C2 =G,2 A,2 | D2 B,2 G,2 B,2 | %29
 A,2 B,2[K:treble] C2 E2 | Dd d>d d2 D>D | D2[K:bass] B,2 G,2 A,B, | z z/[K:treble] d/ d>d d2 D>D | %33
 D2 B,2 _C2 B,2 | E>e e>e e2 [Ge]2 | [Ge]2 [Gg]2 [Gf]2 [Ge]2 | [Gd]2 [GB]2 G2 [GA]2 | %37
 [GB]2 [GB]>[A_c] [GB]2 A2 |[M:3/4] G6 |[M:1/4][K:bass] F,>_F, | %40
[M:4/4] F,2[K:treble] F>_F =F2 A,>=G, | A,2 [FA]>=G [DFA]2 .[D_GB]2 | %42
 [Dd]-[D-Gd][Dd-][B,Gd] [Fd]2 [Gc]2 |[M:3/4] [Fd]d cB AG |[M:1/4][K:bass] F,>_F, | %45
[M:4/4] z2[K:treble] F>_F =F2 A,>=G, | z2 [FA]>[_F=G] [=FA]2 [_GB]>[Gc] | [Fd]2 [Fe]2 [Fd]2 [FB]2 | %48
 [Gd]2 [Gc]2 [EGc]2 z2 | z2 [CEG]>[_C=DF] [=CEG]2 z2 | z2 [CGB]>[CG=A] [CGB]2 [CGB]>[Gd] | %51
 [Gc]2 [GB]2 [FA]2 [EG]2 | FDC[K:bass]B, A,G, F,>_F, | z2[K:treble] F>_F =F2 A,>=G, | %54
 z2 [FA]>[_F=G] [=FA]2 [_GB]>[Gc] | [Fd]2 [Fe]2 [Fd]2 [Fe]2 | [B,Gd]2 [B,Gd]2 [DGB]2 D>C | %57
 z2 d>c d2 D>C | D2 d>c d2 d>d | f2 d2 d2 [Gc]2 |[M:7/4] [Fd]6 z2 z2 z4 |] %61
V:2
 z8 | z2 A,2 z4 | z2 z z/ _F/ D,2 z[K:treble] c | D,E,F,G, A,2 [A,,A,]2 |[M:3/4] [D,A,]D CB, A,G, | %5
[M:1/4] z2 |[M:4/4] z2 [D,A,D]>[D,=G,D] [D,A,D]2 z2 | z2 [D,D]>[D,D] [D,D]2 [D,D]>[D,D] | %8
 [D,A,]2 [D,A,]2 [D,A,]2 [D,D]2 | [E,A,]2 [E,A,]2 A,2 G,>F, | G,6 z2 | B,6 z2 | %12
 [A,,A,]2 [A,,A,]2 [A,,A,]2 [A,,A,]2 | .[D,A,D]2 z2 z4 | z2 [D,A,D]>[D,=G,D] [D,A,D]2 z2 | %15
 z2 [D,D]>[D,D] [D,D]2 [D,D]>[D,A,] | [D,A,]2 [D,A,]2 [D,_C]2 [D,C]2 | %17
 [G,,G,]2 [G,,G,]2 [G,,G,]2 z2 | z2 [=G,B,_F]>[G,B,F] [G,B,F]2 z2 | %19
 z2[K:treble] D->[A,DEF] [=A,D_F]2 [A,DF]>[A,D=G] | [A,DA]2 [A,F]2 [A,EG]2[K:bass] [A,,A,]2 | %21
[M:3/4] [D,A,]6 |[M:1/4] z2 |[M:4/4] z8 | z z/[K:treble] [DGB]/ [DGB]>[DB] [DB]2 z2 | z8 | %26
 z z/ [EA_c]/ [EAc]>[EAc] [EAc]2 z2 | z8 | z8 | z4 z2 A,2 | z [DFA] [DGB]>[GB] [FA_c]2 z2 | z8 | %32
 z z/ [DGB]/ [DGB]>[DGB] [DGB]2 z2 | z8 | z z/ [EA_c]/ [EAc]>[EAc] [EAc]2[K:bass] [_C,_C]2 | %35
 [_C,_C]2 [C,C]2 [=C,=A,]2 [C,A,]2 | [D,B,]2 [D,D]2 [E,B,]2 [=D,_C]2 | %37
 [D,D]2 [D,D]>[D,D] [D,D]2 [D,_CD]2 |[M:3/4] [B,D]6 |[M:1/4] z2 |[M:4/4] z2 A,2 z4 | %41
 z2 z z/ _F/ D,2 z[K:treble] c | D,E,F,G, A,2 [A,,A,]2 |[M:3/4] [D,A,]D CB, A,G, |[M:1/4] z2 | %45
[M:4/4] z2 [D,A,D]>[D,=G,D] [D,A,D]2 z2 | z2 [D,D]>[D,D] [D,D]2 [D,D]>[D,D] | %47
 [D,A,]2 [D,A,]2 [D,A,]2 [D,D]2 | [E,A,]2 [E,A,]2 A,2 G,>F, | G,6 z2 | B,6 z2 | %51
 [A,,A,]2 [A,,A,]2 [A,,A,]2 [A,,A,]2 | .[D,A,D]2 z2 z4 | z2 [D,A,D]>[D,=G,D] [D,A,D]2 z2 | %54
 z2 [D,D]>[D,D] [D,D]2 [D,D]>[D,A,] | [D,A,]2 [D,A,]2 [D,_C]2 [D,C]2 | %56
 [G,,G,]2 [G,,G,]2 [G,,G,]2 z2 | z2 [=G,B,_F]>[G,B,F] [G,B,F]2 z2 | %58
 z2[K:treble] D->[A,DEF] [=A,D_F]2 [A,DF]>[A,D=G] | [A,DA]2 [A,F]2 [A,EG]2[K:bass] [A,,A,]2 | %60
[M:7/4] [D,A,]6 z2 z2 z4 |] %61
V:3
 x8 | z2 [D,D]->[D,=G,D] [D,A,D]2 z2 | z2 [D,D]2 z2 D,2[K:treble] | x8 |[M:3/4] x6 |[M:1/4] x2 | %6
[M:4/4] x8 | x8 | x8 | x8 | z2 A,,>A,, A,,2 B,>=A, | z2 A,,>A,, A,,2 A,,>[A,,A,] | x8 | x8 | x8 | %15
 x8 | x8 | x8 | x8 | z2[K:treble] [A,F]2 z4 | x6[K:bass] x2 |[M:3/4] x6 |[M:1/4] x2 |[M:4/4] x8 | %24
 x3/2[K:treble] x13/2 | x8 | x8 | x8 | x8 | x8 | z2 z z/ D/- D2 z2 | x8 | x8 | x8 | x6[K:bass] x2 | %35
 x8 | x8 | x8 |[M:3/4] x6 |[M:1/4] x2 |[M:4/4] z2 [D,D]->[D,=G,D] [D,A,D]2 z2 | %41
 z2 [D,D]2 z2 D,2[K:treble] | x8 |[M:3/4] x6 |[M:1/4] x2 |[M:4/4] x8 | x8 | x8 | x8 | %49
 z2 A,,>A,, A,,2 B,>=A, | z2 A,,>A,, A,,2 A,,>[A,,A,] | x8 | x8 | x8 | x8 | x8 | x8 | x8 | %58
 z2[K:treble] [A,F]2 z4 | x6[K:bass] x2 |[M:7/4] x14 |] %61
V:4
 x8 | x2[K:treble] x6 | x8 | .F2 .A2 z4 |[M:3/4] x6 |[M:1/4][K:bass] x2 |[M:4/4] F,6[K:treble] z2 | %7
 A,6 z2 | x8 | x8 | x8 | x8 | x8 | x3[K:bass] x5 | F,6[K:treble] z2 | A,6 z2 | x8 | x8 | D4 z4 | %19
 x8 | x8 |[M:3/4] x6 |[M:1/4] x2 |[M:4/4] x2[K:bass] x6 | D,6[K:treble] z2 | x2[K:bass] x6 | %26
 E,6[K:treble] z2 | x2[K:bass] x6 | x8 | x4[K:treble] x4 | x8 | x2[K:bass] x6 | D,6[K:treble] z2 | %33
 x8 | x8 | x8 | x8 | x8 |[M:3/4] x6 |[M:1/4][K:bass] x2 |[M:4/4] x2[K:treble] x6 | x8 | %42
 .F2 .A2 z4 |[M:3/4] x6 |[M:1/4][K:bass] x2 |[M:4/4] F,6[K:treble] z2 | A,6 z2 | x8 | x8 | x8 | %50
 x8 | x8 | x3[K:bass] x5 | F,6[K:treble] z2 | A,6 z2 | x8 | x8 | D4 z4 | x8 | x8 |[M:7/4] x14 |] %61

